src/16/panel/process-syncing-error.svg

<svg xmlns="http://www.w3.org/2000/svg" width="16" height="16" version="1.1">
 <defs>
  <style id="current-color-scheme" type="text/css">
   .ColorScheme-Text { color:#dfdfdf; } .ColorScheme-Highlight { color:#FF5252; }
  </style>
 </defs>
 <path style="fill:currentColor" class="ColorScheme-Highlight" d="M 2,1 C 1.446,1 1,1.446 1,2 V 4.2832 C 1.2965,4.1077 1.636,4 2,4 H 3 4 4.5859 L 6.293,2.293 C 6.4805,2.1054 6.7348,2.0001 7,2 H 8 C 8,1.446 7.554,1 7,1 Z M 7,3 5,5 H 4 3 2 C 1.446,5 1,5.446 1,6 V 7 8 10 11 13 C 1,14.108 1.892,15 3,15 H 13 C 14.108,15 15,14.108 15,13 V 11 10 4 C 15,3.446 14.554,3 14,3 Z M 7.9805,5.3203 A 0.44445,0.44445 0 0 1 8.0254,5.3203 0.44445,0.44445 0 0 1 8.4258,5.625 L 9.2227,8.0156 11.742,8.041 A 0.44445,0.44445 0 0 1 12.002,8.8418 L 9.9766,10.34 10.73,12.744 A 0.44445,0.44445 0 0 1 10.047,13.238 L 7.998,11.773 5.9453,13.234 A 0.44445,0.44445 0 0 1 5.2637,12.736 L 6.0234,10.334 4,8.834 A 0.44445,0.44445 0 0 1 4.2617,8.0312 L 6.7812,8.0117 7.582,5.625 A 0.44445,0.44445 0 0 1 7.9805,5.3203 Z"/>
</svg>

<svg xmlns="http://www.w3.org/2000/svg" width="16" height="16"><defs><style id="current-color-scheme" type="text/css"></style></defs><path d="M2 1c-.554 0-1 .446-1 1v2.283A1.958 1.958 0 0 1 2 4h2.586l1.707-1.707A1 1 0 0 1 7 2h1c0-.554-.446-1-1-1zm5 2L5 5H2c-.554 0-1 .446-1 1v7c0 1.108.892 2 2 2h10c1.108 0 2-.892 2-2V4c0-.554-.446-1-1-1zm.98 2.32a.444.444 0 0 1 .045 0 .444.444 0 0 1 .4.305l.798 2.39 2.519.026a.444.444 0 0 1 .26.8L9.977 10.34l.753 2.404a.444.444 0 0 1-.683.494l-2.049-1.465-2.053 1.461a.444.444 0 0 1-.681-.498l.76-2.402L4 8.834a.444.444 0 0 1 .262-.803l2.52-.02.8-2.386a.444.444 0 0 1 .399-.305z" fill="currentColor" color="#5294e2"/></svg>
